shape-oval-plus.svg

<svg fill="currentColor" viewBox="0 0 24 24"><path d="M19 5h3v2h-3v3h-2V7h-3V5h3V2h2zm-8-1 1 .09v2.05c-.32-.09-.66-.14-1-.14-2.76 0-5 3.13-5 7s2.24 7 5 7 5-3.13 5-7l-.05-1h2.01l.04 1c0 4.97-3.13 9-7 9s-7-4.03-7-9 3.13-9 7-9"/></svg>

<svg  viewBox="0 0 24 24" fill="currentColor"><path  d="M19 5H22V7H19V10H17V7H14V5H17V2H19V5M11 4L12 4.09V6.14C11.68 6.05 11.34 6 11 6C8.24 6 6 9.13 6 13C6 16.87 8.24 20 11 20C13.76 20 16 16.87 16 13L15.95 12H17.96L18 13C18 17.97 14.87 22 11 22C7.13 22 4 17.97 4 13C4 8.03 7.13 4 11 4Z"/></svg>
